X:1
T:Praise His Name Forever
T:Charles Hutchinson Gabriel
T:Praise His Name Forever
T:Public Domain
T:Public Domain
T:Public Domain
C:Charles Hutchinson Gabriel
Z:Public Domain
%%score ( 1 2 ) ( 3 4 )
L:1/8
M:4/4
K:G
V:1 treble 
V:2 treble 
V:3 bass 
V:4 bass 
V:1
 [DG]2 D2 [EG]2 [FA]2 | [GB]>[Gc] [Gd]>[Ge] [Gd]2 [=FB]2 | [Ec]2 [CE]2 [DB]2 D2 | %3
w: 1.~Glo- ry, hon- or,|jes- ty and pow- er Be|to Him now ris-|
w: 2.~Songs of joy we|in ex- ul- ta- tion, Of|our king, Re- deem-|
w: 3.~An- gels praise Him,|the high- est glo- ry, Cher-|u- bim and ser-|
 [^CB]>[CA] [CE]>[CB] [DA]4 | [DG]2 D2 [EG]2 [FA]2 | [GB]>[Gc] [Gd]>[Ge] [Gd]2 [GB]2 | %6
w: from the dead, Who from|death hath tak- en|ery ter- ror, And hath made|
w: Lord of all! For He|lives, o’er sin and|vic- tor- ious; Earth and Heav’n|
w: phim a- dore; While our|hu- man hearts a-|the chor- us, “Je- sus lives!|
 [Ge]2 [GA]2 [Gd]2 G2 | [Fd]>[Fc] [FB]>[FA] G4 ||"^Refrain" (E>E E>E E) z/ G/ E z/ e/ | %9
w: the grave a vic-|bed. Praise His name for-|er, * * * * Lift up the|
w: His might- y deeds|tol. * * * *||
w: He lives for- ev-|more!” * * * *||
 (G>G G>G) [GB]>[B,D] [DG]>[GB] | [Fd]2 [Ec]2 [CE]2 [Ec]2 | [DB]>[CA] [B,G]>[CE] [B,D]2 z2 | %12
w: hon- * * * or of our ris-|king! Might- y to|de- liv- er, With an-|
w: |||
w: |||
 (E>E E>E E) z/ G/ E z/ e/ | (G>G G>G) [GB]>[B,D] [DG]>[GB] | [Fd]2 [Ec]2 [DB]2 [DA]2 | [DG]6 z2 |] %16
w: gels * * * * we His praise||||
w: ||||
w: ||||
V:2
 x2 D2 x4 | x8 | x6 D2 | x8 | x2 D2 x4 | x8 | x6 G2 | x4 G4 || G4- G3/2c3/2 x | d4 x4 | x8 | x8 | %12
w: ma-||en||ev-||tor’s|ev-|voice * in|en|||
w: sing||er,||death||ex-||||||
w: in||a-||wake||er-||||||
 G4- G3/2c3/2 x | d4 x4 | x8 | x8 |] %16
w: will * sing.||||
w: ||||
w: ||||
V:3
 [G,B,]2 [F,A,]2 [E,B,]2 [D,D]2 | [G,D]>[G,A,] [G,B,]>[G,C] [G,B,]2 [G,D]2 | %2
w: ~ ~ ~ ~|~ ~ ~ ~ ~ ~|
 [C,C]2 [C,G,]2 [G,,G,]2 [B,,G,]2 | [A,,G,]>[A,,G,] [A,,G,]>[A,,G,] (F,2 C2) | %4
w: ~ ~ ~ ~|~ ~ ~ ~ ~ *|
 [G,B,]2 [F,A,]2 [E,B,]2 [D,D]2 | [G,D]>[G,A,] [G,B,]>[G,C] [G,B,]2 [G,D]2 | %6
w: ~ ~ ~ ~|~ ~ ~ ~ ~ ~|
 [C,C]2 [C,E]2 [B,,D]2 [B,,D]2 | [A,,D]>[A,,D] [D,D]>[D,C] [G,B,]4 || %8
w: ~ ~ ~ ~|~ ~ ~ ~ Praise|
 [C,C]>[C,C] [C,C]>[C,C] [C,C] z [C,C] z | [G,B,]>[G,B,] [G,B,]>[G,B,] [G,D]3/2 z/ z2 | %10
w: His name for- ev- er, praise|His ho- ly name, Lift|
 [D,A,]>[D,A,] [D,A,]>[D,A,] [D,F,]>[D,F,] [D,F,]>[D,F,] | G,2 G,2 (z3/2 =F,/ E,>D,) | %12
w: the voie in hon- or of our ris-|en King! * * *|
 [C,C]>[C,C] [C,C]>[C,C] [C,C] z [C,C] z | [G,B,]>[G,B,] [G,B,]>[G,B,] [G,D]3/2 z/ z2 | %14
w: * de- liv- er, mer- ci-|ful to save, With the|
 [D,A,]>[D,A,] [D,F,]>[D,F,] [D,G,]>[D,G,] [D,C]>[D,C] | [G,,B,]6 z2 |] %16
w: ang- els we His praise will sing. *||
V:4
 x8 | x8 | x8 | x4 D,4 | x8 | x8 | x8 | x8 || x8 | x8 | x8 | G,2 G,2 G,2 x2 | x8 | x8 | x8 | x8 |] %16
w: |||~||||||||Might- y to|||||

